X: 142
T:Drumin's Strathspey
B:William Marshall's Scottish Airs, Melodies, Strathspeys, Reels &c (1822)
C:William Marshall
L:1/8
M:C
O:Scotland
R:Strathspey
Z:Clark Bernst + Richard Robinson
%%Page:36 - 1
F:http://richardrobinson.tunebook.org.uk/tune/3985
%%TBL:{"version":1,"type":"tune","id":"3985"}
K:D
%%staves {1 2}
V:1
F | \
D/E/F/G/ AF D/D/D !trill!B2 | A<dA>F GEEF | \
D/E/F/G/ AF D/D/D !trill!B2 | A<dA>G FDDF |
D/E/F/G/ AF D/D/D !trill!B2 | A<dA>F GEEF | \
D/E/F/G/ AF D/D/D !trill!B2 | A<dA>G FDD |]
g | \
f>ed>e d/d/d !trill!f2 | d>ef>d eEEg | \
f>e d<e d/d/d !trill!f2 | B<dA>G FDDg |
f>e d<e d/d/d !trill!f2 | d<ef>d eEEg | \
fbef decd | B<d!trill!A>G FDD |]
V:2 middle=d clef=bass
L:1/4
z/ | dddg | fdee | dddg | aAdd | dddg | fdee | dddg | aAdd/ |] \
z/ | dddd | ddee | dddd | gadd | dddd | ddee | dgdf | gadd/ |]

